X: 1620
T: the Goodnatured Man
R: hornpipe
B: O'Neill's 1850 #1620
Z: Michael D. Long, 10/10/98
Z: Michael Hogan
M: 2/4
L: 1/16
K: G
d2 | g2bg d2gd | BcdB G2AB |[1,3 cded cBAG | FGEF D2 :|[2,4 cedc BAGF | A2G2 G2 :: (Bc) | dBdB gdgd |
ecec aeae | fdfd gdgd | fgaf defd || g2bg d2gd | BcdB G2AB | cedc BAGF | A2G2 G2 :|
